public/chains/mantle.svg

<svg width="314" height="311" viewBox="0 0 314 311" fill="none" xmlns="http://www.w3.org/2000/svg">
<g clip-path="url(#clip0_2100_2019)">
<path d="M314 0H0V311H314V0Z" fill="black"/>
<path d="M155.5 289.1V243.4C150.9 243.4 146.2 243 141.6 242.3L134.4 287.4C141.4 288.6 148.5 289.1 155.5 289.1ZM176.5 287.5C183.5 286.4 190.4 284.8 197.1 282.6L183 239.1C178.6 240.5 174 241.6 169.4 242.3L176.5 287.5ZM113.9 282.6L128 239.2C123.6 237.8 119.3 236 115.1 233.9L94.2998 274.6C100.6 277.7 107.2 280.4 113.9 282.6ZM216.6 274.6C222.9 271.4 228.9 267.7 234.6 263.6L207.6 226.7C203.9 229.4 199.9 231.9 195.7 233.9L216.6 274.6ZM76.2998 263.5L103.3 226.6C99.5998 223.9 95.9998 220.9 92.6998 217.6L60.2998 249.9C65.2998 254.8 70.6998 259.4 76.2998 263.5ZM250.5 250.1L250.8 249.8C255.8 244.9 260.4 239.5 264.5 233.9L227.5 207C224.8 210.7 221.7 214.3 218.5 217.5L218 218L233.6 232.7L250.5 250.1ZM46.5998 233.8L83.5998 206.9C80.8998 203.2 78.3998 199.2 76.2998 195.1L35.4998 215.8C38.6998 222.1 42.3998 228.1 46.5998 233.8ZM275.5 215.9C278.7 209.7 281.4 203.1 283.6 196.4L240 182.4C238.6 186.8 236.8 191.1 234.7 195.2L275.5 215.9ZM27.3998 196.4L70.9998 182.3C69.5998 177.9 68.4998 173.4 67.7998 168.8L22.4998 175.9C23.5998 182.8 25.2998 189.7 27.3998 196.4ZM288.5 176C289.6 169.1 290.2 162 290.2 155H244.4C244.4 159.6 244 164.3 243.3 168.9L288.5 176ZM66.6998 154.9C66.6998 150.3 67.0998 145.6 67.7998 141L22.4998 133.9C21.3998 140.8 20.8998 147.9 20.7998 154.9H66.6998ZM243.3 141.1L288.6 134C287.5 127.1 285.9 120.2 283.7 113.5L240.1 127.5C241.5 132 242.6 136.5 243.3 141.1ZM70.9998 127.5C72.3998 123.1 74.1998 118.8 76.2998 114.7L35.4998 94C32.2998 100.2 29.5998 106.8 27.3998 113.5L70.9998 127.5ZM234.8 114.8L275.7 94.0999C272.5 87.7999 268.8 81.7999 264.6 76.0999L227.5 103C230.2 106.7 232.7 110.7 234.8 114.8ZM83.5998 102.9C86.2998 99.1999 89.3998 95.6 92.6998 92.3L92.7998 92.2L60.3998 59.9L60.2998 60C55.2998 65 50.6998 70.3 46.5998 76L83.5998 102.9ZM218.5 92.5L228.3 82.5999L250.8 60.2L250.7 60.0999C245.7 55.1999 240.4 50.6 234.8 46.5L207.8 83.4C211.5 86.1 215.1 89.0999 218.3 92.3999L218.5 92.5ZM103.4 83.1999C107.1 80.4999 111.1 78.1 115.3 76L94.4998 35.2999C88.1998 38.4999 82.1998 42.1999 76.4998 46.2999L103.4 83.1999ZM196 76.0999L216.9 35.4C210.6 32.2 204.1 29.4999 197.4 27.2999L183.2 70.6999C187.5 72.1999 191.8 73.9999 196 76.0999ZM128.2 70.6999C132.6 69.2999 137.2 68.2 141.8 67.5L134.7 22.4C127.8 23.5 120.8 25.0999 114.1 27.2999L128.2 70.6999ZM169.5 67.5L176.7 22.4C169.8 21.3 162.7 20.7 155.7 20.7V66.4C160.3 66.4 165 66.8 169.5 67.5Z" fill="white"/>
<path d="M155.5 245.5V199.6C151.6 199.6 147.8 199.1 144 198.1L132 242.4C139.7 244.4 147.6 245.5 155.5 245.5ZM179 242.4C186.7 240.4 194 237.4 200.9 233.4L177.7 193.7C174.4 195.6 170.8 197.1 167.1 198.1L179 242.4ZM110.2 233.4L133.4 193.7C130.1 191.8 127 189.4 124.2 186.7L123.8 186.3L109.2 201.6L91.1999 218.9L91.4999 219.2C97.0999 224.7 103.4 229.5 110.2 233.4ZM219.6 219.2C225.2 213.6 230.1 207.4 234 200.6L193.9 177.6C192 180.9 189.6 183.9 186.8 186.7L219.6 219.2ZM76.9999 200.5L117.1 177.6C115.2 174.3 113.7 170.8 112.7 167.1L67.9999 178.9C69.9999 186.4 73.0999 193.7 76.9999 200.5ZM243.1 179C245.1 171.4 246.2 163.6 246.2 155.8H199.9C199.9 159.6 199.4 163.5 198.4 167.2L243.1 179ZM111.3 155.7C111.3 151.9 111.8 148 112.8 144.3L67.9999 132.5C65.9999 140.1 64.8999 147.9 64.8999 155.7H111.3ZM198.3 144.4L243.1 132.6C241.1 125 238 117.7 234.1 110.9L194 133.8C195.8 137.2 197.3 140.7 198.3 144.4ZM117.2 133.8C119.1 130.6 121.4 127.5 124.2 124.8L124.3 124.7L107.7 108.3L91.7999 92L91.4999 92.3C85.8999 97.8 81.0999 104.1 77.0999 110.8L117.2 133.8ZM186.8 124.8L203.2 108.5L220 92.7L219.6 92.3C214 86.7 207.7 82 200.9 78L177.7 117.7C181 119.6 184 121.9 186.8 124.6V124.8ZM133.4 117.7C136.7 115.8 140.3 114.3 144 113.3L132.2 69C124.5 71 117.2 74 110.3 78L133.4 117.7ZM167 113.4L179 69.1C171.4 67.1 163.5 66 155.6 66V111.9C159.4 111.9 163.3 112.4 167 113.4Z" fill="white"/>
</g>
<defs>
<clipPath id="clip0_2100_2019">
<rect width="314" height="311" rx="155.5" fill="white"/>
</clipPath>
</defs>
</svg>

<?xml version="1.0" encoding="utf-8"?>
<!-- Generator: Adobe Illustrator 26.0.1, SVG Export Plug-In . SVG Version: 6.00 Build 0)  -->
<svg version="1.1" id="Layer_1" xmlns="http://www.w3.org/2000/svg" xmlns:xlink="http://www.w3.org/1999/xlink" x="0px" y="0px"
	 viewBox="0 0 314 311" style="enable-background:new 0 0 314 311;" xml:space="preserve">
<style type="text/css">
	.st0{fill:#FFFFFF;}
</style>
<rect width="314" height="311"/>
<path class="st0" d="M155.5,289.1l0-45.7c-4.6,0-9.3-0.4-13.9-1.1l-7.2,45.1C141.4,288.6,148.5,289.1,155.5,289.1L155.5,289.1z
	 M176.5,287.5c7-1.1,13.9-2.7,20.6-4.9L183,239.1c-4.4,1.4-9,2.5-13.6,3.2L176.5,287.5z M113.9,282.6l14.1-43.4
	c-4.4-1.4-8.7-3.2-12.9-5.3l-20.8,40.7C100.6,277.7,107.2,280.4,113.9,282.6z M216.6,274.6c6.3-3.2,12.3-6.9,18-11l-27-36.9
	c-3.7,2.7-7.7,5.2-11.9,7.2L216.6,274.6z M76.3,263.5l27-36.9c-3.7-2.7-7.3-5.7-10.6-9l-32.4,32.3l0,0
	C65.3,254.8,70.7,259.4,76.3,263.5z M250.5,250.1l0.3-0.3c5-4.9,9.6-10.3,13.7-15.9l-37-26.9c-2.7,3.7-5.8,7.3-9,10.5l-0.5,0.5
	l15.6,14.7L250.5,250.1z M46.6,233.8l37-26.9c-2.7-3.7-5.2-7.7-7.3-11.8l-40.8,20.7C38.7,222.1,42.4,228.1,46.6,233.8L46.6,233.8z
	 M275.5,215.9c3.2-6.2,5.9-12.8,8.1-19.5L240,182.4c-1.4,4.4-3.2,8.7-5.3,12.8L275.5,215.9z M27.4,196.4L71,182.3
	c-1.4-4.4-2.5-8.9-3.2-13.5l-45.3,7.1C23.6,182.8,25.3,189.7,27.4,196.4L27.4,196.4z M288.5,176c1.1-6.9,1.7-14,1.7-21l-45.8,0
	c0,4.6-0.4,9.3-1.1,13.9L288.5,176z M66.7,154.9c0-4.6,0.4-9.3,1.1-13.9l-45.3-7.1c-1.1,6.9-1.6,14-1.7,21L66.7,154.9L66.7,154.9z
	 M243.3,141.1l45.3-7.1c-1.1-6.9-2.7-13.8-4.9-20.5l-43.6,14C241.5,132,242.6,136.5,243.3,141.1L243.3,141.1z M71,127.5
	c1.4-4.4,3.2-8.7,5.3-12.8L35.5,94c-3.2,6.2-5.9,12.8-8.1,19.5L71,127.5L71,127.5z M234.8,114.8l40.9-20.7
	c-3.2-6.3-6.9-12.3-11.1-18L227.5,103C230.2,106.7,232.7,110.7,234.8,114.8L234.8,114.8z M83.6,102.9c2.7-3.7,5.8-7.3,9.1-10.6
	l0.1-0.1L60.4,59.9L60.3,60c-5,5-9.6,10.3-13.7,16L83.6,102.9z M218.5,92.5l9.8-9.9l22.5-22.4l-0.1-0.1c-5-4.9-10.3-9.5-15.9-13.6
	l-27,36.9c3.7,2.7,7.3,5.7,10.5,9L218.5,92.5z M103.4,83.2c3.7-2.7,7.7-5.1,11.9-7.2L94.5,35.3c-6.3,3.2-12.3,6.9-18,11L103.4,83.2z
	 M196,76.1l20.9-40.7c-6.3-3.2-12.8-5.9-19.5-8.1l-14.2,43.4C187.5,72.2,191.8,74,196,76.1L196,76.1z M128.2,70.7
	c4.4-1.4,9-2.5,13.6-3.2l-7.1-45.1c-6.9,1.1-13.9,2.7-20.6,4.9L128.2,70.7z M169.5,67.5l7.2-45.1c-6.9-1.1-14-1.7-21-1.7l0,45.7
	C160.3,66.4,165,66.8,169.5,67.5z"/>
<path class="st0" d="M155.5,245.5v-45.9c-3.9,0-7.7-0.5-11.5-1.5l-12,44.3C139.7,244.4,147.6,245.5,155.5,245.5z M179,242.4
	c7.7-2,15-5,21.9-9l-23.2-39.7c-3.3,1.9-6.9,3.4-10.6,4.4L179,242.4z M110.2,233.4l23.2-39.7c-3.3-1.9-6.4-4.3-9.2-7l-0.4-0.4
	l-14.6,15.3l-18,17.3l0.3,0.3C97.1,224.7,103.4,229.5,110.2,233.4L110.2,233.4z M219.6,219.2L219.6,219.2
	c5.6-5.6,10.5-11.8,14.4-18.6l-40.1-23c-1.9,3.3-4.3,6.3-7.1,9.1L219.6,219.2z M77,200.5l40.1-22.9c-1.9-3.3-3.4-6.8-4.4-10.5
	L68,178.9C70,186.4,73.1,193.7,77,200.5z M243.1,179c2-7.6,3.1-15.4,3.1-23.2l-46.3,0c0,3.8-0.5,7.7-1.5,11.4L243.1,179z
	 M111.3,155.7c0-3.8,0.5-7.7,1.5-11.4L68,132.5c-2,7.6-3.1,15.4-3.1,23.2L111.3,155.7L111.3,155.7z M198.3,144.4l44.8-11.8
	c-2-7.6-5.1-14.9-9-21.7l-40.1,22.9C195.8,137.2,197.3,140.7,198.3,144.4z M117.2,133.8c1.9-3.2,4.2-6.3,7-9l0.1-0.1l-16.6-16.4
	L91.8,92l-0.3,0.3c-5.6,5.5-10.4,11.8-14.4,18.5L117.2,133.8z M107.7,108.3l0.2,0.2L107.7,108.3z M186.8,124.8l16.4-16.3L220,92.7
	l-0.4-0.4C214,86.7,207.7,82,200.9,78l-23.2,39.7c3.3,1.9,6.3,4.2,9.1,6.9L186.8,124.8z M133.4,117.7c3.3-1.9,6.9-3.4,10.6-4.4
	L132.2,69c-7.7,2-15,5-21.9,9L133.4,117.7z M167,113.4l12-44.3c-7.6-2-15.5-3.1-23.4-3.1l0,45.9C159.4,111.9,163.3,112.4,167,113.4
	L167,113.4z"/>
</svg>
